X:745
T: Nine Mile House
S: B.Breathnach: "Ceol Rince na hEireann" II/207 (gan ainm)
Z: B.Black
L: 1/8
N: Third part = second part of "Sheila Coyle's"
M: 4/4
R: reel
K: D
A3B AFDF|(3ABA FD GECE|A3d BdAF|ED (3DDD EFGB|
(3AAF AB AFDF|(3ABA FD GECE|A3d BdAF|ED (3DDD EFDG :|
FD (3DDD FD (3GGD|FD (3DDD GECE|FD (3DDD FDGF|1 EDCD EFDG :|2\
EDCD EFGA ||
df (3fff dffe|dddB AFDA|ce (3eee ceec|(3BBB ^GB AFDA|
df (3fff dffe|dddB AFDA|ce (3eee faec|1 dcce d2 dA :|2\
dcce dcdB ||

